Origami/16x16/apps/distributor-logo-korora.svg

<svg width="16" height="16" version="1.1" xmlns="http://www.w3.org/2000/svg">
 <path d="m10 0c-3.3137 0-6 2.686-6 6s2.6863 6 6 6c3.314 0 6-2.686 6-6v-5.199c0-0.443-0.358-0.801-0.801-0.801" style="fill:#666666"/>
 <path d="m10 10a4 4 0 0 0 4 -4v-4h-4a4 4 0 0 0 -4 4 4 4 0 0 0 4 4z" style="fill:#ececec"/>
 <path d="m6 16c3.3137 0 6-2.686 6-6 0-3.3137-2.6863-6-6-6s-6 2.6863-6 6v5.199c0 0.443 0.35758 0.801 0.80078 0.801" style="fill:#808080"/>
 <path d="m6 6a4 4 0 0 0 -4 4v4h4a4 4 0 0 0 4 -4 4 4 0 0 0 -4 -4z" style="fill:#ffffff"/>
</svg>

<svg xmlns="http://www.w3.org/2000/svg" width="16" height="16" version="1.1">
 <path style="fill:#666666" d="M 10,0 C 6.6863,0 4,2.686 4,6 4,9.314 6.6863,12 10,12 13.314,12 16,9.314 16,6 V 0.801 C 16,0.358 15.642,0 15.199,0"/>
 <path style="fill:#ececec" d="M 10,10 A 4,4 0 0 0 14,6 V 2 H 10 A 4,4 0 0 0 6,6 4,4 0 0 0 10,10 Z"/>
 <path style="fill:#808080" d="M 6,16 C 9.3137,16 12,13.314 12,10 12,6.6863 9.3137,4 6,4 2.6863,4 0,6.6863 0,10 V 15.199 C 0,15.642 0.35758,16 0.80078,16"/>
 <path style="fill:#ffffff" d="M 6 6 A 4 4 0 0 0 2 10 L 2 14 L 6 14 A 4 4 0 0 0 10 10 A 4 4 0 0 0 6 6 z"/>
</svg>
